svgs/hide_my_applist.svg

<svg width="192" height="192" viewBox="0 0 192 192" fill="none" xmlns="http://www.w3.org/2000/svg">
<path d="M113 49V71.5H64.5C59.5294 71.5 55.5 67.4706 55.5 62.5V58C55.5 53.0294 59.5294 49 64.5 49H113Z" stroke="black" stroke-width="6" stroke-linecap="round" stroke-linejoin="round"/>
<path d="M113 123V145.5H64.5C59.5294 145.5 55.5 141.471 55.5 136.5V132C55.5 127.029 59.5294 123 64.5 123H113Z" stroke="black" stroke-width="6" stroke-linecap="round" stroke-linejoin="round"/>
<path d="M113 86V108.5H64.5C59.5294 108.5 55.5 104.471 55.5 99.5V95C55.5 90.0294 59.5294 86 64.5 86H113Z" stroke="black" stroke-width="6" stroke-linecap="round" stroke-linejoin="round"/>
<mask id="path-4-inside-1_1_2" fill="white">
<rect x="16" y="16" width="160" height="160" rx="6"/>
</mask>
<rect x="16" y="16" width="160" height="160" rx="6" stroke="black" stroke-width="16" mask="url(#path-4-inside-1_1_2)"/>
<rect x="64" y="129.4" width="11.796" height="9.83" stroke="black" stroke-width="6" stroke-linejoin="round"/>
<rect x="64" y="55.4" width="11.796" height="9.83" stroke="black" stroke-width="6" stroke-linejoin="round"/>
<rect x="64" y="92.4" width="11.796" height="9.83" stroke="black" stroke-width="6" stroke-linejoin="round"/>
<path d="M168 169.5H113.5V23.5H168V169.5Z" stroke="black" stroke-width="12" stroke-linecap="round" stroke-linejoin="round"/>
</svg>

<svg width="192" height="192" viewBox="0 0 192 192" fill="none" xmlns="http://www.w3.org/2000/svg"><path d="M113 49v22.5H64.5a9 9 0 0 1-9-9V58a9 9 0 0 1 9-9H113ZM113 123v22.5H64.5a9 9 0 0 1-9-9V132a9 9 0 0 1 9-9H113ZM113 86v22.5H64.5a9 9 0 0 1-9-9V95a9 9 0 0 1 9-9H113Z" stroke="#000" stroke-width="6" stroke-linecap="round" stroke-linejoin="round"/><mask id="a" fill="#fff"><rect x="16" y="16" width="160" height="160" rx="6"/></mask><rect x="16" y="16" width="160" height="160" rx="6" stroke="#000" stroke-width="16" mask="url(#a)"/><path stroke="#000" stroke-width="6" stroke-linejoin="round" d="M64 129.4h11.796v9.83H64zM64 55.4h11.796v9.83H64zM64 92.4h11.796v9.83H64z"/><path d="M168 169.5h-54.5v-146H168v146Z" stroke="#000" stroke-width="12" stroke-linecap="round" stroke-linejoin="round"/></svg>
